src/icons/svg/Ellipsis.svg

<svg width="24" height="24" viewBox="0 0 24 24" fill="none" xmlns="http://www.w3.org/2000/svg">
<path d="M3.60002 9.36C2.14202 9.36 0.960022 10.542 0.960022 12C0.960022 13.458 2.14202 14.64 3.60002 14.64C5.05802 14.64 6.24002 13.458 6.24002 12C6.24002 10.542 5.05802 9.36 3.60002 9.36ZM12 9.36C10.542 9.36 9.36002 10.542 9.36002 12C9.36002 13.458 10.542 14.64 12 14.64C13.458 14.64 14.639 13.458 14.639 12C14.639 10.542 13.458 9.36 12 9.36ZM20.4 9.36C18.942 9.36 17.76 10.542 17.76 12C17.76 13.458 18.942 14.64 20.4 14.64C21.858 14.64 23.04 13.458 23.04 12C23.04 10.542 21.858 9.36 20.4 9.36Z" fill="#1C2125"/>
</svg>

<!-- Generated by IcoMoon.io -->
<svg version="1.1" xmlns="http://www.w3.org/2000/svg" width="24" height="24" viewBox="0 0 24 24">
<title>ellipsis</title>
<path fill="#444" d="M3.6 9.36c-1.458 0-2.64 1.182-2.64 2.64s1.182 2.64 2.64 2.64 2.64-1.182 2.64-2.64c0-1.458-1.182-2.64-2.64-2.64zM12 9.36c-1.458 0-2.64 1.182-2.64 2.64s1.182 2.64 2.64 2.64 2.639-1.182 2.639-2.64c0-1.458-1.181-2.64-2.639-2.64zM20.4 9.36c-1.458 0-2.64 1.182-2.64 2.64s1.182 2.64 2.64 2.64 2.64-1.182 2.64-2.64c0-1.458-1.182-2.64-2.64-2.64z"></path>
</svg>
